svgs/light/flower.svg

<svg xmlns="http://www.w3.org/2000/svg" viewBox="0 0 512 512"><!--! Font Awesome Pro 6.0.0-alpha3 by @fontawesome - https://fontawesome.com License - https://fontawesome.com/license (Commercial License) --><path d="M461.5 256C492.3 229.2 512 190.2 512 146.2C512 65.5 446.5 0 365.8 0c-44 0-83 19.75-109.8 50.5C229.2 19.75 190.2 0 146.2 0C65.5 0 0 65.5 0 146.2C0 190.2 19.75 229.2 50.5 256C19.75 282.8 0 321.8 0 365.8C0 446.5 65.5 512 146.2 512c44 0 82.1-19.75 109.8-50.5C282.8 492.2 321.8 512 365.8 512C446.5 512 512 446.5 512 365.8C512 321.8 492.3 282.8 461.5 256zM365.8 480c-33 0-63.38-13.1-85.63-39.5L256 412.9L231.9 440.5C209.6 466 179.2 480 146.2 480C83.25 480 32 428.8 32 365.8c0-33 13.1-63.38 39.5-85.63L99.12 256L71.5 231.9C45.1 209.6 32 179.2 32 146.2C32 83.25 83.25 32 146.2 32c33 0 63.37 14 85.63 39.5L256 99.12l24.12-27.62C302.4 46 332.8 32 365.8 32C428.8 32 480 83.25 480 146.2c0 33-14 63.38-39.5 85.63L412.9 256l27.62 24.12C465.1 302.4 480 332.8 480 365.8C480 428.8 428.8 480 365.8 480zM256 160C203.1 160 160 203.1 160 256s43.12 96 96 96s96-43.13 96-96S308.9 160 256 160zM256 320c-35.25 0-64-28.75-64-64s28.75-64 64-64s64 28.75 64 64S291.2 320 256 320z"/></svg>

<svg xmlns="http://www.w3.org/2000/svg" viewBox="0 0 512 512"><!-- Font Awesome Pro 5.15.3 by @fontawesome - https://fontawesome.com License - https://fontawesome.com/license (Commercial License) --><path d="M461.5 256c30.7-26.8 50.5-65.8 50.5-109.7C512 65.5 446.5 0 365.7 0 321.8 0 282.8 19.8 256 50.5 229.2 19.8 190.2 0 146.3 0 65.5 0 0 65.5 0 146.3c0 43.9 19.8 82.9 50.5 109.7C19.8 282.8 0 321.8 0 365.7 0 446.5 65.5 512 146.3 512c43.9 0 82.9-19.8 109.7-50.5 26.8 30.7 65.8 50.5 109.7 50.5 80.8 0 146.3-65.5 146.3-146.3 0-43.9-19.8-82.9-50.5-109.7zm-95.8 224c-32.9 0-63.3-14-85.6-39.5L256 412.9l-24.1 27.6C209.6 466 179.2 480 146.3 480 83.3 480 32 428.7 32 365.7c0-32.9 14-63.3 39.5-85.6L99.1 256l-27.6-24.1C46 209.6 32 179.2 32 146.3 32 83.3 83.3 32 146.3 32c32.9 0 63.3 14 85.6 39.5L256 99.1l24.1-27.6C302.4 46 332.8 32 365.7 32c63 0 114.3 51.3 114.3 114.3 0 32.9-14 63.3-39.5 85.6L412.9 256l27.6 24.1c25.5 22.3 39.5 52.7 39.5 85.6 0 63-51.3 114.3-114.3 114.3zM256 160c-52.9 0-96 43.1-96 96s43.1 96 96 96 96-43.1 96-96-43.1-96-96-96zm0 160c-35.3 0-64-28.7-64-64s28.7-64 64-64 64 28.7 64 64-28.7 64-64 64z"/></svg>
